X:1
T:Huit fugues sans pédal
T:Huit fugues sans pédal, F. 31
T:No.8 
T:Wilhelm Friedemann Bach (1710-1784)
T:Fabio L. 2020
T:Fabio L. 2020
T:Fabio L. 2020
T:Fabio L. 2020
C:Wilhelm Friedemann Bach
Z:Fabio L. 2020
%%score { ( 1 2 4 ) | 3 }
L:1/8
Q:1/4=86
M:2/4
K:Ab
V:1 treble nm="鋼琴" snm="Pno."
V:2 treble 
V:4 treble 
V:3 bass 
V:1
 z4 | z4 | z4 | z4 | z4 | z4 | z4 | z4 | (c4 | =B2 _B2 | =A2 _A2 | G2) c2- | (c2 =B2) | (ce) c2- | %14
 (ce) c2- | (ceca-) | a (d2 c) | (Bd) B2- | (Bd) B2- | (BdBg-) | g (c2 B) | A2 (cA) | z (cG=A) | %23
 z (BFG | A)(FAc | dBGc | A2) f2- | (f2 =e2) | f2 a2- | a2 g2- | g2 f2- | (f2 =e2) | f2 z2 | z4 | %34
 z2 z (_g | ec) z (f | =dB) e2- | e2 =d2- | d2 c2- | (c2 =B2) | (cGEG) | (=D>E) (FG) | %42
 (C>=D) (EF- | FE G) z | (F4 | E2) c2- | (c2 =B2) | c2 z (!tenuto!a | f=d) z (!tenuto!g | %49
 =ec) f2- | f2 e2- | (e2 d)(!tenuto!_g | ec) z (!tenuto!f | =dB) e2- | e2 d2- | (d2 c)(f | %56
 dB) z e | (ce) _g2 | (fg) a2- | ag (b2- | b2 a2- | a2 g2) | a (c2 =d) | (!tenuto!e4 | %64
 !tenuto!=d2 !tenuto!_d2 | !tenuto!c2 !tenuto!_c2 | B2) e2- | (e2 =d2) | e2 c(!tenuto!f | dB) z e | %70
 (ce) a2- | a (!tenuto!g2 a | b) !tenuto!d2 d- | d (!tenuto!B2 _c-) | c a2 a- | a _c'2 c'- | %76
 c' (!tenuto!a2 _c) | (!tenuto!_cB) z2 | z (!tenuto!Eed) | ((d2 c))(B | A)c f2- | f (=e2 f | %82
 g) B2 B- | B (G2 A-) | A f2 f- | f a2 a- | a (f2 A) |{B} (PAG) z2 | z (CcB) | ((B2 A)G) | %90
 z (Ffe) | (!tenuto!e2 d)c- | c(Bf(B-) | B_c)(!tenuto!ce- | e=dad) | !tenuto!f2 !tenuto!e2 | %96
 !tenuto!b2 !tenuto!e2- | e2 ((!tenuto!=e2- | ef)_g=d) | (f2 e2) | d2 f2 | e4 | d4 | c4 | (Bfdf) | %105
 z (c'fc') | z (bBb- | bB) z f | (_gecf) | (G4 | F) z z2 | (_g4 | f2) z (f | e) (_g2 f | =dB) z2 | %115
 (f4 | e2) z (e | d) (f2 e | cA) z f | e4 | d4 | c4- | c2 B2- | B2 z (=A | B2) F2 | g4- | %126
 g2 !tenuto!f2- | f2 z (B | A)(!tenuto!ga)(!tenuto!=e | f)(!tenuto!^fg)=d | (f=e) f2- | f2 e2- | %132
 e2 d2- | d2 z d- | d z z d | (c=eg)B | (A2 G2- |[Q:1/4=84] G[Q:1/4=82]_G[Q:1/4=80] PF2[Q:1/4=78] | %138
[Q:1/4=86] =E) z z2 | z4 | z4 | z4 | z4 | z4 | (!tenuto!F4 | !tenuto!A2 !tenuto!=A2 | %146
 !tenuto!B2 !tenuto!=B2 | c2) (!tenuto!F2- | F2 _G2 | F)G A2- | (AG) !tenuto!B2- | B (A2 G) | %152
 (F2 =E2) | z (!tenuto!FBA) | z (!tenuto!GcB- | BA) z a | (g=ef)=B | (=B2 c) z | (f4 | =e2 _e2 | %160
 =d2 _d2 | c2) z (_g | f)(=dgf) | (!tenuto!e2 !tenuto!=e2 | f)(c'fe) | =d2 d2- | d (a2{g} f) | %167
 =d2 d2- | d(agf) | (e2 P=d2) | (!tenuto!c4 | !tenuto!=B2 !tenuto!_B2 | !tenuto!=A2 !tenuto!_A2 | %173
 G)(!tenuto!FBA) | z (!tenuto!GcB- | BA)(F!tenuto!_c- | cB)(G!tenuto!d- | dc) z (B | A) f2 (=B | %179
 c2) z2 | z (cfe | dB) z (!tenuto!e | cA) z (!tenuto!d | BG) z c- | c (B2 A) | (G2 f2) | f4- | %187
 f2 f2- | f(=ef)B | (!tenuto!A2 G)=A | (!tenuto!=A2 B)c | (!tenuto!c2 d)=A | (!tenuto!=A2 B)c | %193
 (!tenuto!c2 d)=B | (!tenuto!=B2 c)=d | (!tenuto!=d2 e)=B | (!tenuto!=B2 c)=d | (e=efg | %198
 a) (!tenuto!f2 =e) | f[Q:1/4=80](c[Q:1/4=76]{e}d[Q:1/4=72]{c}B) | %200
[Q:1/4=60] (A2[Q:1/4=68] !breath!PG2) | !fermata!F4 |] %202
V:2
 (!tenuto!F4 | !tenuto!=E2 !tenuto!_E2 | !tenuto!=D2 !tenuto!_D2 | !tenuto!C2) (!tenuto!F2- | %4
 F2 !tenuto!=E2) | (FA) F2- | (FAFA-) | A (G2 F) | E2 (FA) | z (G=D=E) | z (FC=D | E)(CEG | AF=DG | %13
 E)(CEG) | A(CEG) | (A3 G) | F2[I:staff +1] (F,[I:staff -1]F) | G(B,DF) | G(B,DF) | (G3 F) | %20
 (=E2 (CE)) | (FC[I:staff +1]A,[I:staff -1]C) |[I:staff +1] G,2[I:staff -1] C2 | %23
[I:staff +1] F,2 B,2 | (C3 A,) | (B,G,) C2- | C2[I:staff -1] z A | (B3 G) | A2 (c2 | B4) | A4 | %31
 G4 | F2 z (d | BG) z (c | =AF) B2- | B2 A2- | (A2 G)(c | AF) z (B | GE) z (A | F=D) z2 | %40
 (!tenuto!C4 | !tenuto!=B,2 !tenuto!_B,2 |[I:staff +1] !tenuto!=A,2 !tenuto!_A,2 | %43
 G,2) !tenuto!C2- | (C2 =B,2) |[I:staff -1] z (!tenuto!CEG | AF=DG | EC) c2- | c2 B2- | B2 A2 | %50
 (G4 | F)=A B2- | B2 A2- | A2 G2 | (F4 | E)G A2- | (A2 G2) | A2 z e | (AB) c2- | cB d2- | d2 c2 | %61
 B4 | (!tenuto!A4 | !tenuto!G2 !tenuto!_G2 | !tenuto!F2 !tenuto!_F2 | E2) (!tenuto!A2- | %66
 (A2 G))(!tenuto!c | AF) z (!tenuto!B | GE) A2- | (A2 G2) | A2 c2- | c (!tenuto!B2 c | %72
 d) !tenuto!B2 B- | B (!tenuto!G2 A-) | A _c2 c- | c a2 a- | a (!tenuto!_c2 A) | (!tenuto!AG) x2 | %78
 z2 z (G | A) (E2 =E) | F2 A2- | A (G2 A | B) G2 G- | G (=E2 F-) | F A2 A- | A f2 f- | f (A2 F) | %87
 (F=E) x2 | z2 z (=E | F2) z2 | z F2 (=A | B) (F2 =E) | !tenuto!F2 z F | !tenuto!_G4 | A2 z A | %95
 z !wedge!B z !wedge!B | z !wedge!B z !wedge!B | (_cB) z !wedge!B | B=A z2 | z (=ABc) | F2 d2- | %101
 d2 c2- | c2 B2- | (B2 =A2) | BDFD | (!tenuto!F4 | !tenuto!=E2 !tenuto!_E2 | %107
 !tenuto!=D2 !tenuto!_D2 | C2) !tenuto!F2- | (F2 =E2) | F (A2 c) | B (d2 c | =AF) B2- | B2 A2- | %114
 (A2 _G)(B | A) (_c2 B | GE) A2- | A2 _G2- | (G2 F)(A | _G) (B2 A) | F(A_GF) | E (_G2 F) | E2 D2- | %123
 D2 z (!tenuto!E | D)(!tenuto!cd)(!tenuto!=A | B)(!tenuto!=Bc)(G | B2) !tenuto!A2- | A2 z (=E | %128
 F) z[I:staff +1] (F,[I:staff -1]B) | (!tenuto!A2 G2-) | G2 F2 | G4 | F4 | =E4 | F4 | G2 z (G- | %136
 GF)(=EB,) |[I:staff +1] (!tenuto!A,!tenuto!=A,!tenuto!B,!tenuto!=B,) |[I:staff -1] (!tenuto!C4 | %139
 !tenuto!D2 !tenuto!=D2 | !tenuto!E2 !tenuto!=E2 | F2) (!tenuto!C2- | C2 D2 | C)G (C2- | CDC) z | %145
 z (CFE) | z (=DGF) | (E=EF_E | D)(CDE | A,)B, C2- | (CB,) !tenuto!D2- | (DC) !tenuto!B,2- | %152
 B,[I:staff +1](!tenuto!G,[I:staff -1]CB,- | B,[I:staff +1]A,)(F,[I:staff -1]!tenuto!_C- | %154
 CB,)[I:staff +1](G,[I:staff -1]!tenuto!D- | DC) z c | (B2 A)F | F2 (=EG) | C(!tenuto!Acd) | %159
 z (!tenuto!GBc) | (!tenuto!F4 | !tenuto!A2 !tenuto!=A2 | !tenuto!B2 !tenuto!=B2 | !tenuto!c4-) | %164
 c4- | c2 c2 | c4- | c2 c2- | c(=Bc=d) | (c2 =B2) | c(EGA) | z (=DFG) | (!tenuto!C4 | %173
 !tenuto!D2 !tenuto!=D2 | !tenuto!E2 !tenuto!=E2 | !tenuto!F)[I:staff +1](F,B,A,) | %176
[I:staff -1] z[I:staff +1] (G,CB,- | B,A,)[I:staff -1] z (=E | F) A2 (F | =E2) z (G | cB) A2- | %181
 A2 G2- | G2 F2- | (F2 =E2) | F4- | F3 (A | G) (!tenuto!d2{c} B) | G4- | G(dc)G | %189
 (!tenuto!F2 =E)_E | (E2 F2) | F3 E | (E2 F2) | F2 z A | (A2 G2) | G3 A | A2 G2- | %197
 GD[I:staff +1] C2- | C(A,B,D) |[I:staff -1] C (!tenuto!F2 G) | (F2 =E2) | F4 |] %202
V:3
 z4 | z (CG,=A,) | z (B,F,G, | A,)(F,A,C | DB,G,C | A,)(F,A,C) | (D3 C) | (=B,2 G,2) | (A,G,A,F,) | %9
 G,2 z2 | z4 | z4 | z4 | z4 | z4 | z4 | z4 | z4 | z4 | z4 | z4 | (F,4 | =E,2 _E,2 | =D,2 _D,2 | %24
 C,2) F,2- | (F,2 =E,2) | z (F,A,C | DB,G,C | A,F,) z (F | DB,) z (E | CA,) z (D | B,G,) z (C | %32
 A,F,) F2- | F2 E2- | E2 D2 | (C3 A,) | B,2 C(E, | F,A,B,)(=D, | E,G,A,)(C, | =D,F,G,F,) | %40
 E,2 (C,E,) | z (G,=D,=E,) | z (F,C,=D, | E,)(!tenuto!C,E,G, | A,F,=D,G,) | C, z z2 | z4 | z4 | %48
 z4 | z2 z (!tenuto!D | B,G,) z (!tenuto!C | =A,F,) z2 | z4 | z2 z (!tenuto!C | %54
 A,F,) z (!tenuto!B, | G,E,) z2 | z4 | !tenuto!A,2 (B,C) | D2 (C=D | E3 =E | %60
 (!tenuto!F)F,) z (!tenuto!F | DB,) z (!tenuto!E | CA,) (!tenuto!F2 | (E)E,) z !tenuto!=A, | %64
 (!tenuto!B,B,,) z !tenuto!G, | (!tenuto!A,A,,) z !tenuto!=D | (!tenuto!EE,) z2 | z4 | z4 | z4 | %70
 z2 (A,C) | (!tenuto!E2 !tenuto!E,2) | z2 (!tenuto!E,E) | (!tenuto!_F2 _F,2) | z2 (!tenuto!_F,_F) | %75
 (!tenuto!E2 E,2) | (!tenuto!=D,2 =D2) | z (!tenuto!E,ED) | ((D2 C)B,) | (A,3 G,) | F,2 (F,,A,,) | %81
 (!tenuto!C,2 C,,2) | z2 (!tenuto!C,C) | (!tenuto!D2 D,2) | z2 (!tenuto!D,D) | (!tenuto!C2 C,2) | %86
 (!tenuto!=B,,2 =B,2) | z (!tenuto!C,CB,) | ((B,2 A,)G,) | z (!tenuto!F,FE) | ((E2 D)C) | (B,3 C) | %92
 !tenuto!D2 z D | !tenuto!E4 | F2 z F | %95
 z[I:staff -1] !wedge!_G[I:staff +1] z[I:staff -1] !wedge!G | %96
[I:staff +1] z[I:staff -1] !wedge!_G[I:staff +1] z[I:staff -1] !wedge!G | %97
 (A_G)[I:staff +1] z[I:staff -1] !wedge!G | (_GF)[I:staff +1] x2 | z (F,G,=A,) | %100
 (B,B,,) z[K:treble] (B | _GE) z (A | FD) z (_G | EC) z F |[K:bass] (!tenuto!B,4 | %105
 !tenuto!=A,2 !tenuto!_A,2 | !tenuto!G,2 !tenuto!_G,2 | F,2) (!tenuto!B,2- | B,2 =A,2) | B, (D2 C | %110
 A,F,) F2- | F2 E2- | E2 D2 | (!tenuto!C2 !tenuto!_C2 | !tenuto!B,2) E2- | E2 D2- | D2 C2 | %117
 (!tenuto!B,2 !tenuto!__B,2 | !tenuto!A,2) D2- | D2 C2- | C2 B,2- | (B,2 =A,2) | B,(B,,D,F,) | %123
 (!tenuto!_G,B,D!tenuto!G,) | !tenuto!F,4- | (F,2 =E,2) | F,(!tenuto!F,,A,,C,) | %127
 (!tenuto!D,F,A,!tenuto!D,) | !tenuto!C,4- | (C,2 =B,,2) | C,(!tenuto!CD)(!tenuto!=A, | %131
 B,)(!tenuto!=B,C)(!tenuto!G, | A,)(!tenuto!=A,B,)F, | (!tenuto!_G,B,D!tenuto!G,) | %134
 (!tenuto!F,B,D!tenuto!F,) | (!tenuto!=E,C,) z E, | (F,A,)(CC,) | (!tenuto!D,4 | C,) z z2 | %139
 z (!tenuto!F,B,A,) | z (!tenuto!G,CB, | A,)(CA,F, | =E,G,B,F, | =E,)(!tenuto!C,E,G,) | %144
 (A,B,A,G,) | (F,2 F,,2) | z2 z G,, | A,,3 =A,, | (B,,A,,B,,C,) | (D,2 C,=D, | E,3 =E,) | F,2 z2 | %152
 (!tenuto!C,4 | !tenuto!D,2 !tenuto!=D,2 | !tenuto!E,2 !tenuto!=E,2 | F,2) (!tenuto!C,2- | %156
 C,2 D,2 | C,) (C2 B,) | A,(!tenuto!F,A,B,) | z (CG,=A,) | (B,=A,B,)B,, | F,(CFE | =DB,) z G, | %163
 C,(G,CB,) | (A,3 G,) | (F,G,A,G,) | F,2[K:treble] !tenuto!F2- | (FGAG) | (F2 EF) | %169
[K:bass] (!tenuto!G,[I:staff -1]G)[I:staff +1] z (G,, | A,,)(A,E,F,) | z (G,=D,=E,) | %172
 (F,F,,) z F, | (B,B,,) z =B,, | (!tenuto!C,4 | !tenuto!D,2 !tenuto!=D,2 | %176
 !tenuto!E,2 !tenuto!=E,2 | F,2) (!tenuto!C,2- | C,2 D,2 | C,)(G,CB, | A,G,F,)F,, | (B,DE)(G, | %182
 A,CD)(F, | G,B,C)C, | (!tenuto!D,2 C,2) | (B,,C,D,C,) | B,,2 B,2- | (B,CDC) | (B,2 A,B,) | %189
 (CC,) z C | (!tenuto!DCD)=A, | (!tenuto!B,B,,) z C | (!tenuto!DCD)=A, | (!tenuto!B,B,,) z F | %194
 (!tenuto!E=DE)=B, | (!tenuto!CC,) z F | (!tenuto!E=DE)=B, | (!tenuto!CB,A,G,) | %198
 (!tenuto!F,2 !tenuto!G,2 | !tenuto!A,2 !tenuto!B,2 | !tenuto!C2) !tenuto!C,2 | !tenuto!F,,4 |] %202
V:4
 x4 | x4 | x4 | x4 | x4 | x4 | x4 | x4 | x4 | x4 | x4 | x4 | x4 | x4 | x4 | x4 | x4 | x4 | x4 | %19
 x4 | x4 | x4 | x4 | x4 | x4 | x4 | x4 | x4 | x4 | x4 | x4 | x4 | x4 | x4 | x4 | x4 | x4 | x4 | %38
 x4 | x4 | x4 | x4 | x4 | x4 | x4 | x4 | x4 | x4 | x4 | x4 | x4 | x4 | x4 | x4 | x4 | x4 | x4 | %57
 x4 | x4 | x4 | x4 | x4 | x4 | x4 | x4 | x4 | x4 | x4 | x4 | x4 | x4 | x4 | x4 | x4 | x4 | x4 | %76
 x4 | x4 | x4 | x4 | x4 | x4 | x4 | x4 | x4 | x4 | x4 | x4 | x4 | x4 | x4 | x4 | x4 | x4 | x4 | %95
 x4 | x4 | x4 | x4 | x4 | x4 | x4 | x4 | x4 | x4 | x4 | x4 | x4 | x4 | x4 | x4 | x4 | x4 | x4 | %114
 x4 | x4 | x4 | x4 | x4 | x4 | x4 | x4 | x4 | x4 | x4 | x4 | x4 | x4 | x4 | x4 | x4 | x4 | x4 | %133
 x3 B- | B z z B- | B x x2 | x4 | x4 | x4 | x4 | x4 | x4 | x4 | x4 | x4 | x4 | x4 | x4 | x4 | x4 | %150
 x4 | x4 | x4 | x4 | x4 | x4 | x4 | x4 | x4 | x4 | x4 | x4 | x4 | x4 | x4 | x4 | x4 | x4 | x4 | %169
 x4 | x4 | x4 | x4 | x4 | x4 | x4 | x4 | x4 | x4 | x4 | x4 | x4 | x4 | x4 | x4 | x4 | x4 | x4 | %188
 x4 | x4 | x4 | x4 | x4 | x4 | x4 | x4 | x4 | x4 | x4 | x4 | x4 | x4 |] %202

